Obsidian-SemiLight/actions/22s/games-hint.svg

<svg viewBox="0 0 22 22" xmlns="http://www.w3.org/2000/svg"><path d="m11 3v.0019531c-2.99956 0-4.5 1.9861875-4.5 4.3984375 0 2.5993635 2.9140625 7.5996094 2.9140625 7.5996094l3.1718755-.003906s2.914062-4.996343 2.914062-7.5957034c0-2.412226-1.49956-4.4003906-4.5-4.4003906zm0 1.0019531c2.33368 0 3.5 1.6557555 3.5 3.6660157 0 2.1662002-2.265625 6.3300782-2.265625 6.3300782l-2.46875.003906s-2.265625-4.1677841-2.265625-6.3339842c0-2.01029 1.16702-3.6640625 3.5-3.6640626zm-2 11.9980469v1.5c0 .831.669 1.5 1.5 1.5h1c.831 0 1.5-.669 1.5-1.5v-1.5h-1.5-1z" fill="#4d4d4d"/></svg>

<svg xmlns="http://www.w3.org/2000/svg" viewBox="0 0 22 22">
  <defs id="defs3051">
    <style type="text/css" id="current-color-scheme">
      .ColorScheme-Text {
        color:#4d4d4d;
      }
      </style>
  </defs>
 <path 
    style="fill:currentColor;fill-opacity:1;stroke:none" 
    d="M 11 3 L 11 3.0019531 C 8.00044 3.0019531 6.5 4.9881406 6.5 7.4003906 C 6.5 9.9997541 9.4140625 15 9.4140625 15 L 12.585938 14.996094 C 12.585938 14.996094 15.5 9.999751 15.5 7.4003906 C 15.5 4.9881646 14.00044 3 11 3 z M 11 4.0019531 C 13.33368 4.0019531 14.5 5.6577086 14.5 7.6679688 C 14.5 9.834169 12.234375 13.998047 12.234375 13.998047 L 9.765625 14.001953 C 9.765625 14.001953 7.5 9.8341689 7.5 7.6679688 C 7.5 5.6576788 8.66702 4.0039063 11 4.0039062 L 11 4.0019531 z M 9 16 L 9 17.5 C 9 18.331 9.669 19 10.5 19 L 11.5 19 C 12.331 19 13 18.331 13 17.5 L 13 16 L 11.5 16 L 10.5 16 L 9 16 z "
    class="ColorScheme-Text"
    />  
</svg>
